src/xmb/monochrome/cursor.svg

<svg xmlns="http://www.w3.org/2000/svg" xml:space="preserve" width="64" height="64"><path fill="#fff" d="M32 30a2 2 0 1 0 .001 4.001A2 2 0 0 0 32 30m16 1h-2.051C45.458 24.067 39.926 18.542 33 18.051V16a1 1 0 1 0-2 0v2.051c-6.934.49-12.459 6.016-12.949 12.949H16a1 1 0 1 0 0 2h2.051c.49 6.933 6.016 12.459 12.949 12.949V48a1 1 0 1 0 2 0v-2.051c6.926-.491 12.458-6.016 12.949-12.949H48a1 1 0 1 0 0-2m-4.051 0H39.93a7.996 7.996 0 0 0-6.931-6.931V20.05c5.823.483 10.468 5.121 10.95 10.95M32 38a6 6 0 1 1 0-12 6 6 0 0 1 0 12m-1-17.949v4.019a7.99 7.99 0 0 0-6.931 6.931H20.05A11.99 11.99 0 0 1 31 20.051M20.051 33h4.019a7.99 7.99 0 0 0 6.931 6.931v4.019A11.99 11.99 0 0 1 20.051 33M33 43.949V39.93a7.996 7.996 0 0 0 6.931-6.931h4.019c-.483 5.83-5.128 10.468-10.95 10.95"/></svg>

<?xml version="1.0" encoding="utf-8"?>
<!-- Generator: Adobe Illustrator 16.0.0, SVG Export Plug-In . SVG Version: 6.00 Build 0)  -->
<!DOCTYPE svg PUBLIC "-//W3C//DTD SVG 1.1//EN" "http://www.w3.org/Graphics/SVG/1.1/DTD/svg11.dtd">
<svg version="1.1" id="Calque_1" xmlns="http://www.w3.org/2000/svg" xmlns:xlink="http://www.w3.org/1999/xlink" x="0px" y="0px"
	 width="64px" height="64px" viewBox="0 0 64 64" enable-background="new 0 0 64 64" xml:space="preserve">
<path id="saved_queryies" fill="#ffffff" d="M32,30c-1.104,0-2,0.896-2,2s0.896,2,2,2c1.104,0,2-0.896,2-2S33.104,30,32,30z M48,31
	h-2.051C45.458,24.067,39.926,18.542,33,18.051V16c0-0.553-0.447-1-1-1s-1,0.447-1,1v2.051C24.066,18.541,18.541,24.067,18.051,31
	H16c-0.553,0-1,0.447-1,1s0.447,1,1,1h2.051c0.49,6.933,6.016,12.459,12.949,12.949V48c0,0.553,0.447,1,1,1s1-0.447,1-1v-2.051
	C39.926,45.458,45.458,39.933,45.949,33H48c0.553,0,1-0.447,1-1S48.553,31,48,31z M43.949,31h-4.019
	c-0.452-3.617-3.316-6.479-6.931-6.931v-4.019C38.822,20.533,43.467,25.171,43.949,31z M32,38c-3.314,0-6-2.686-6-6s2.686-6,6-6
	c3.311,0,6,2.686,6,6S35.311,38,32,38z M31,20.051v4.019c-3.618,0.451-6.479,3.313-6.931,6.931h-4.019
	C20.532,25.171,25.171,20.532,31,20.051z M20.051,33h4.019c0.452,3.617,3.312,6.479,6.931,6.931v4.019
	C25.171,43.468,20.532,38.829,20.051,33z M33,43.949v-4.019c3.614-0.452,6.479-3.313,6.931-6.931h4.019
	C43.467,38.829,38.822,43.467,33,43.949z"/>
</svg>
